X:35
T: Owen Thomas'
C: BB
R: reel
Q: 1/8=350
M: 4/4
L: 1/8
K: Edor
"Em"EBBA GEFD|"Em"EB, (3B,=CB, EGFD|"Em"EBBc "D"dBAd|"G"Bdeg "D"fagf|
"Em"eBBA "G"GFGA|"Em"Bded "Bm"BFAF|"Em"EB, (3B,=CB, "C"CDEG|"D"FGAF "Em"E4 :|
"Em"Bdeg Bdeg|"D"fdfa "Bm"bfaf|"Em7"edBd "G"gfed|"Bm7"BFAF "C"GEG=c|
"Em"Be (3efe "G"gfed|"C"eg (3gfg "Bm7"bfaf|"C"g2eg "D7"f2d=c|"Bm7"BADF "Em"E4 :|


